X: 514
T: Captain Mackenzie's Reel
R: reel
B: "Preston's Twenty Four Country Dances for the Year 1804", Tho. Preston, ed. p.217
F: http://imslp.org/wiki/24_Country_Dances_for_the_Year_1804_(Preston_(publisher),_Thomas)
N: The 2nd part has initial repeat but no final repeat.
M: C|
L: 1/8
K: Am
E |\
A/A/A cB ABcd | G/G/G dc BGdB | A/A/A cB cdec | deBe cAA ::
^g |\
aece cAec | gdBg BGdB | aecB cde^f | gedB cA Ae/^f/ |
aece cAec | gdBg BGdB | cAdB ec^fd | g^fgd cAA |]
% - - - - - - - - - - - - - - - - - - - - - - - - -
%%begintext align
%% Cast off 2 Cu: up again, lead down the middle
%% up again & cast off, turn corners lead outside.
%%endtext

%%sep 1 1 500
